icon-themes/sifr_svg/cmd/sc_arrowshapes.circular-arrow.svg

<svg viewBox="0 0 16 16" xmlns="http://www.w3.org/2000/svg"><path d="m7 3c-3.8659932 0-7 3.581722-7 8h4c0-2.21 1.3431458-4 3-4s3 1.790861 3 4h-2l4 4 4-4h-2c0-4.418278-3.134007-8-7-8z" fill="#555753"/></svg>

<svg xmlns="http://www.w3.org/2000/svg" viewBox="0 0 16 16">
  <path
     style="fill:#555753"
     d="M 7 3 C 3.1340068 3 0 6.581722 0 11 L 4 11 C 4 8.79 5.3431458 7 7 7 C 8.6568542 7 10 8.790861 10 11 L 8 11 L 12 15 L 16 11 L 14 11 C 14 6.581722 10.865993 3 7 3 z "
     />
</svg>
